X:1
T:Title
%%score 1 { 2 | 3 }
L:1/8
Q:1/4=95
M:6/8
K:A
V:1 treble nm="Grand Piano, Soprano"
V:2 bass nm="Choir Pad, Guadeloupe, LMD"
V:3 bass 
V:1
 [CE] [CA]2 [DG] [CA]2 | [EB] [Ac]2 [Fd] [EB]2 | [Ac]/[Bd]/ [ce]2 A [Fd]2 | %3
w: By~Henry~Tucker,~1860 * * *|||
 [Ec][DB][CA] [DG] [CA]2 | [CE] [CA]2 [DG] [CA]2 | [EB] [Ac]2 [Fd] [EB]2 | %6
w: |||
 [Ac]/[Bd]/ [ce]2 A [Fd]2 | [Ec][DB][CA] [DG] [CA]2 | [EA] [Fd]2 [Ac] [Fd]2 | [Af] [ce]2 [Ac] A2 | %10
w: ||||
 [Ac] [Fd]2 [Af] [ce]2 | [Ac] [EA]2 [Ac] [GB]2 | [CE] [CA]2 [DG] [CA]2 | [EB] [Ac]2 [Fd] [EB]2 | %14
w: ||||
 [Ac]/[Bd]/ [ce]2 A [Fd]2 | [Ec][DB][CA] [DG] [CA]2- | [CA]6 |] %17
w: |||
V:2
 A, E,2 E, E,2 | G, A,2 A, G,2 | A, A,2 A, A,2 | A,G,A, E, E,2 | A, E,2 E, E,2 | G, A,2 A, G,2 | %6
 A, A,2 A, A,2 | A,G,A, E, E,2 | C A,2 A, A,2 | A, A,2 A, C2 | C A,2 A, A,2 | A, C2 A, B,2 | %12
 A, E,2 E, E,2 | G, A,2 A, G,2 | A, A,2 A, A,2 | A,G,A, E, E,2- | E,6 |] %17
V:3
 A,, A,,2 A,, A,,2 | .E,3 D, E,2 | A,, A,,2 C, D,2 | E, E,2 z A,,2 | A,, A,,2 A,, A,,2 | %5
 .E,3 D, E,2 | A,, A,,2 C, D,2 | E, E,2 z A,,2 | A, D,2 E, D,2 | D, A,,2 A,, A,,2 | %10
 A,, D,2 D, A,,2 | A,, A,2 z E,2 | A,, A,,2 A,, A,,2 | .E,3 D, E,2 | A,, A,,2 C, D,2 | %15
 E, E,2 z A,,2- | A,,6 |] %17

